svgs/sharp-light/arrow-up-to-dotted-line.svg

<svg xmlns="http://www.w3.org/2000/svg" viewBox="0 0 448 512"><!--! Font Awesome Pro 6.6.0 by @fontawesome - https://fontawesome.com License - https://fontawesome.com/license (Commercial License) Copyright 2024 Fonticons, Inc. --><path d="M56 40L8 40 8 88l48 0 0-48zm96 0l-48 0 0 48 48 0 0-48zm48 0l0 48 48 0 0-48-48 0zm144 0l-48 0 0 48 48 0 0-48zm48 0l0 48 48 0 0-48-48 0zM235.3 164.7L224 153.4l-11.3 11.3-128 128L73.4 304 96 326.6l11.3-11.3L208 214.6 208 320l0 144 0 16 32 0 0-16 0-144 0-105.4L340.7 315.3 352 326.6 374.6 304l-11.3-11.3-128-128z"/></svg>

<svg xmlns="http://www.w3.org/2000/svg" viewBox="0 0 448 512"><!--! Font Awesome Pro 6.4.2 by @fontawesome - https://fontawesome.com License - https://fontawesome.com/license (Commercial License) Copyright 2023 Fonticons, Inc. --><path d="M56 40H8V88H56V40zm96 0H104V88h48V40zm48 0V88h48V40H200zm144 0H296V88h48V40zm48 0V88h48V40H392zM235.3 164.7L224 153.4l-11.3 11.3-128 128L73.4 304 96 326.6l11.3-11.3L208 214.6V320 464v16h32V464 320 214.6L340.7 315.3 352 326.6 374.6 304l-11.3-11.3-128-128z"/></svg>
